!!!SOCIAL_FUNCTION:	parade songs
!!!PDT:	1922
!!!OTL: No_89_Parade_Song_(g).krn
!!!REG: Southwest
!!!LANG: Non-Tone
!!!LING_GROUP: Uto-Aztecan
**kern	**kern
*staff2	*staff1
=1-	=1-
=	=
*clefF4	*clefF4
*k[]	*k[]
*M2/4	*M2/4
4GG/	16e\LK
.	8.c\J
4GG/	4c;\
=2	=2
4GG/	16e\LL
.	16d\
.	16e\
.	16d\JJ
4GG/	16e\LK
.	8.c\J
=3||	=3||
*M3/4	*M3/4
4GG/	16e\LK
.	8.c\J
4GG/	4c\
4GG/	8c\L
.	16G\L
.	16E\JJ
=4||	=4||
*M2/4	*M2/4
2r	8G\L
.	16A\L
.	16G\JJ
.	16A\LL
.	16G\
.	16A\
.	16G\JJ
=5	=5
2r	8A\L
.	[8G\J
.	8G\L]
.	16A\L
.	16G\JJ
=6	=6
2r	4F\
.	4C/
=7	=7
2r	16G\LL
.	16F\J
.	8G\J
.	8.F/L
.	16C/Jk
=8	=8
2r	8F\L
.	16G\L
.	16F\JJ
.	16G\LL
.	16F\
.	16G\
.	16F\JJ
=9	=9
2r	16G\LK
.	8F\
.	16E\Jk
.	4F\
=10	=10
2r	4C/
.	8.C/L
.	16C/Jk
=11	=11
2r	2C/
=12	=12
2r	8G\L
.	16A\L
.	16G\JJ
.	16A\LK
.	8G\
.	16F\Jk
=13	=13
2r	4G\
.	[4G\
=14	=14
2r	2G\]
==:|!	==:|!
*-	*-
